X: 4
T: The Centenary March
R: barndance
M: 4/4
L: 1/8
K: Dmaj
DF |A2 A>B AF ED | f2-f>d ed BF | A2 A>B AF ED | E2 E>F EF/E/ DF |
A2- A>B AF ED | f2 fg/f/ ed Bd | AB/A/ de f>e dc | d2 d>c d2 DF |
A2 A>B AF ED | f2 ff ed B/c/d/B/ | A2 A>B AF ED | E2- EF E2 D/E/F/G/ |
A>^G A>B AF D2 | f2- fg/f/ ed B/c/d | A>^G Ad fe dc | d2 d>c d2 ||
Ad |f>^e fa Ad fa | g2 f2 e2 f>g | af dA FA GF | E2 E>F E2 FG |
AD FA dF Ad | fa gf ed cB | Aa ^ga =ge cA | d2 d>c d2 Ad |
f/g/f/e/ fa Ad fa | ga/g/ fg/f/ e2 fg | af dA F/G/A/F/ G/A/G/F/ | E2- E>F E2 FG |
AD FA d>F Ad | f>a gf ed cB | Aa ^ga =ge cA | d2 d>c d2 |]


Tune 3655	Setting 3655

